X: 609
T: Biao guniang
%%abc-version 2.0
%%abcx-abcm2ps-target-version 5.9.1 (29 Sep 2008)
%%abc-creator hum2abc beta
%%abcx-conversion-date 2013/10/02 07:52:30
%%abc-edited-by Helmut Schaffrath
%%humdrum-veritas 3082917046
%%humdrum-veritas-data 3833515820
%%continueall 1
%%barnumbers 0
L: 1/8
M: 2/4
K: Bb
d'2d' c' [I:setbarnb 1]| 
d' c'd'2 | 
b b b c' | 
d' c'b2 | 
b c' d' f' | 
d' c'b2 | 
c' d' g f | 
d4 | 
b2b g | 
B2b2 | 
b2b2 | 
a gf2 | 
b gb2 | 
d fd2 | 
b a g f | 
d fd2 | 
b c' d' f' | 
c'4 | 
b c' d' f' | 
d' c'b2 | 
c' d' a g | 
f g a g | 
f4 |]  



